icons/assets/icons/system.authorization-setting.svg

<?xml version="1.0" encoding="UTF-8"?>
<svg width="768px" height="768px" viewBox="0 0 768 768" version="1.1" xmlns="http://www.w3.org/2000/svg" xmlns:xlink="http://www.w3.org/1999/xlink">
    <title>authorization-setting</title>
    <g id="Page-1" stroke="none" stroke-width="1" fill="none" fill-rule="evenodd">
        <g id="authorization-setting" fill="#000000" fill-rule="nonzero">
            <path d="M351,672 L160,672 L160,352 L640,352 C657.673112,352 672,337.673112 672,320 C672,302.326888 657.673112,288 640,288 L576,288 L576,224 C576,118.13 489.87,32 384,32 C278.13,32 192,118.13 192,224 L192,288 L128,288 C110.326888,288 96,302.326888 96,320 L96,704 C96,721.673112 110.326888,736 128,736 L351,736 C368.673112,736 383,721.673112 383,704 C383,686.326888 368.673112,672 351,672 Z M256,224 C256,153.307552 313.307552,96 384,96 C454.692448,96 512,153.307552 512,224 L512,288 L256,288 L256,224 Z M704,576 C704.00218,569.257795 703.436851,562.52737 702.31,555.88 L736.12,526.29 C732.920473,516.479266 728.770791,507.004327 723.73,498 L721.5,494.12 C716.178167,485.211219 710.006021,476.838801 703.07,469.12 L660.57,483.59 C650.173156,474.963364 638.39423,468.154306 625.73,463.45 L617.01,419.45 C595.246053,414.8923 572.773947,414.8923 551.01,419.45 L542.29,463.45 C529.62577,468.154306 517.846844,474.963364 507.45,483.59 L464.95,469.12 C458.014368,476.839118 451.84225,485.211497 446.52,494.12 L444.27,498 C439.232955,506.999216 435.083408,516.467149 431.88,526.27 L465.69,555.86 C463.436618,569.178694 463.436618,582.781306 465.69,596.1 L431.88,625.69 C435.080162,635.506895 439.22979,644.988411 444.27,654 L446.5,657.88 C451.825163,666.786566 457.99708,675.158672 464.93,682.88 L507.43,668.41 C517.826844,677.036636 529.60577,683.845694 542.27,688.55 L550.99,732.55 C572.753947,737.1077 595.226053,737.1077 616.99,732.55 L625.71,688.55 C638.37423,683.845694 650.153156,677.036636 660.55,668.41 L703.05,682.88 C709.985632,675.160882 716.15775,666.788503 721.48,657.88 L723.71,654.02 C728.747045,645.020784 732.896592,635.552851 736.1,625.75 L702.29,596.16 C703.425792,589.500029 703.99782,582.756125 704,576 L704,576 Z M584,640 C548.653776,640 520,611.346224 520,576 C520,540.653776 548.653776,512 584,512 C619.346224,512 648,540.653776 648,576 C648,611.346224 619.346224,640 584,640 Z" id="形状"></path>
            <rect id="矩形" opacity="0" x="0" y="0" width="768" height="768"></rect>
        </g>
    </g>
</svg>

<svg xmlns="http://www.w3.org/2000/svg" width="768" height="768" viewBox="0 0 768 768"><defs><style>.a{opacity:0;}</style></defs><title>authorization-setting</title><path d="M384,672H160V352H640a32,32,0,0,0,0-64H608V256a224,224,0,0,0-448,0v32H128a32,32,0,0,0-32,32V704a32,32,0,0,0,32,32H384a32,32,0,0,0,0-64ZM224,256c0-88.22,71.78-160,160-160s160,71.78,160,160v32H224ZM704,576a120.15,120.15,0,0,0-1.69-20.12l33.81-29.59A158.55,158.55,0,0,0,723.73,498l-2.23-3.88a160.72,160.72,0,0,0-18.43-25l-42.5,14.47a120,120,0,0,0-34.84-20.14l-8.72-44a161,161,0,0,0-66,0l-8.72,44a120,120,0,0,0-34.84,20.14l-42.5-14.47a160.8,160.8,0,0,0-18.43,25L444.27,498a159,159,0,0,0-12.39,28.27l33.81,29.59a120.61,120.61,0,0,0,0,40.24l-33.81,29.59A158.86,158.86,0,0,0,444.27,654l2.23,3.88a161.36,161.36,0,0,0,18.43,25l42.5-14.47a120,120,0,0,0,34.84,20.14l8.72,44a161,161,0,0,0,66,0l8.72-44a120,120,0,0,0,34.84-20.14l42.5,14.47a160.8,160.8,0,0,0,18.43-25l2.23-3.86a159,159,0,0,0,12.39-28.27l-33.81-29.59A120.15,120.15,0,0,0,704,576ZM584,640a64,64,0,1,1,64-64A64,64,0,0,1,584,640Z"/><rect class="a" width="768" height="768"/></svg>
